groups/nitrogen/nitrosamine.svg

<?xml version='1.0' encoding='iso-8859-1'?>
<svg version='1.1' baseProfile='full'
              xmlns='http://www.w3.org/2000/svg'
                      xmlns:rdkit='http://www.rdkit.org/xml'
                      xmlns:xlink='http://www.w3.org/1999/xlink'
                  xml:space='preserve'
width='256px' height='256px' viewBox='0 0 256 256'>
<!-- END OF HEADER -->
<rect style='opacity:1.0;fill:#FFFFFF;stroke:none' width='256.0' height='256.0' x='0.0' y='0.0'> </rect>
<path class='bond-0 atom-0 atom-1' d='M 134.6,62.8 L 134.6,113.0' style='fill:none;fill-rule:evenodd;stroke:#000000;stroke-width:2.0px;stroke-linecap:butt;stroke-linejoin:miter;stroke-opacity:1' />
<path class='bond-1 atom-1 atom-2' d='M 121.1,134.4 L 93.1,150.6' style='fill:none;fill-rule:evenodd;stroke:#000000;stroke-width:2.0px;stroke-linecap:butt;stroke-linejoin:miter;stroke-opacity:1' />
<path class='bond-2 atom-2 atom-3' d='M 68.3,146.5 L 40.2,130.3' style='fill:none;fill-rule:evenodd;stroke:#000000;stroke-width:2.0px;stroke-linecap:butt;stroke-linejoin:miter;stroke-opacity:1' />
<path class='bond-2 atom-2 atom-3' d='M 63.5,154.8 L 35.5,138.6' style='fill:none;fill-rule:evenodd;stroke:#000000;stroke-width:2.0px;stroke-linecap:butt;stroke-linejoin:miter;stroke-opacity:1' />
<path class='bond-3 atom-1 atom-4' d='M 148.2,134.4 L 176.3,150.6' style='fill:none;fill-rule:evenodd;stroke:#000000;stroke-width:2.0px;stroke-linecap:butt;stroke-linejoin:miter;stroke-opacity:1' />
<path class='atom-1' d='M102.726,62.8663 C102.728,65.2557 105.914,65.2532 105.912,62.8637 C105.91,60.4742 109.096,60.4717 109.098,62.8612 C109.1,65.2506 112.286,65.2481 112.284,62.8586 C112.282,60.4691 115.469,60.4666 115.471,62.8561 C115.472,65.2455 118.659,65.243 118.657,62.8535 C118.655,60.464 121.841,60.4615 121.843,62.851 C121.845,65.2404 125.031,65.2379 125.029,62.8484 C125.027,60.4589 128.213,60.4564 128.215,62.8459 C128.217,65.2354 131.403,65.2328 131.401,62.8433 C131.399,60.4538 134.585,60.4513 134.587,62.8408 C134.589,65.2303 137.775,65.2277 137.774,62.8382 C137.772,60.4487 140.958,60.4462 140.96,62.8357 C140.962,65.2252 144.148,65.2226 144.146,62.8331 C144.144,60.4436 147.33,60.4411 147.332,62.8306 C147.334,65.2201 150.52,65.2175 150.518,62.828 C150.516,60.4385 153.702,60.436 153.704,62.8255 C153.706,65.215 156.892,65.2124 156.89,62.8229 C156.889,60.4334 160.075,60.4309 160.077,62.8204 C160.079,65.2099 163.265,65.2073 163.263,62.8178 C163.261,60.4284 166.447,60.4258 166.449,62.8153' style='fill:none;stroke:#7F7F7F;stroke-width:2.0px;stroke-linecap:butt;stroke-linejoin:miter;stroke-opacity:1' />
<text x='123.2' y='145.7' class='atom-1' style='font-size:38px;font-style:normal;font-weight:normal;fill-opacity:1;stroke:none;font-family:sans-serif;text-anchor:start;fill:#000000' >N</text>
<text x='68.0' y='177.6' class='atom-2' style='font-size:38px;font-style:normal;font-weight:normal;fill-opacity:1;stroke:none;font-family:sans-serif;text-anchor:start;fill:#000000' >N</text>
<text x='12.8' y='145.8' class='atom-3' style='font-size:38px;font-style:normal;font-weight:normal;fill-opacity:1;stroke:none;font-family:sans-serif;text-anchor:start;fill:#000000' >O</text>
<text x='178.4' y='177.5' class='atom-4' style='font-size:38px;font-style:normal;font-weight:normal;fill-opacity:1;stroke:none;font-family:sans-serif;text-anchor:start;fill:#000000' >C</text>
<text x='204.8' y='177.5' class='atom-4' style='font-size:38px;font-style:normal;font-weight:normal;fill-opacity:1;stroke:none;font-family:sans-serif;text-anchor:start;fill:#000000' >H</text>
<text x='231.1' y='192.8' class='atom-4' style='font-size:25px;font-style:normal;font-weight:normal;fill-opacity:1;stroke:none;font-family:sans-serif;text-anchor:start;fill:#000000' >3</text>
</svg>

<svg height="256" viewBox="0 0 256 256" width="256" xmlns="http://www.w3.org/2000/svg"><path d="m0 0h256v256h-256z" fill="#fff"/><g fill="none" stroke-width="2"><path d="m134.6 62.8v50.2" stroke="#000"/><path d="m121.1 134.4-28 16.2" stroke="#000"/><path d="m68.3 146.5-28.1-16.2" stroke="#000"/><path d="m63.5 154.8-28-16.2" stroke="#000"/><path d="m148.2 134.4 28.1 16.2" stroke="#000"/><path d="m102.726 62.866c.002 2.39 3.188 2.387 3.186-.002-.002-2.39 3.184-2.392 3.186-.003.002 2.39 3.188 2.387 3.186-.002-.002-2.39 3.185-2.392 3.187-.003.001 2.39 3.188 2.387 3.186-.002-.002-2.39 3.184-2.392 3.186-.003s3.188 2.387 3.186-.003c-.002-2.389 3.184-2.392 3.186-.002.002 2.389 3.188 2.387 3.186-.003-.002-2.389 3.184-2.392 3.186-.002.002 2.389 3.188 2.387 3.187-.003-.002-2.389 3.184-2.392 3.186-.002.002 2.389 3.188 2.387 3.186-.003-.002-2.389 3.184-2.392 3.186-.002.002 2.389 3.188 2.387 3.186-.003-.002-2.389 3.184-2.392 3.186-.002.002 2.389 3.188 2.386 3.186-.003-.001-2.39 3.185-2.392 3.187-.003.002 2.39 3.188 2.387 3.186-.002-.002-2.39 3.184-2.392 3.186-.003" stroke="#7f7f7f"/></g><text font-family="sans-serif" font-size="38" x="123.2" y="145.7">N</text><text font-family="sans-serif" font-size="38" x="68" y="177.6">N</text><text font-family="sans-serif" font-size="38" x="12.8" y="145.8">O</text><text font-family="sans-serif" font-size="38" x="178.4" y="177.5">C</text><text font-family="sans-serif" font-size="38" x="204.8" y="177.5">H</text><text font-family="sans-serif" font-size="25" x="231.1" y="192.8">3</text></svg>
